!!!OTL: 2002. Trostlied.
!!!ARE: Europa, Mitteleuropa, Deutschland
!!!SCT: E2002
!!!YEM: Copyright 1995, estate of Helmut Schaffrath.
**kern
*ICvox
*M4/4
*met(c)
*k[]
*a:
!LO:TX:a:t=Moderne Form.
{4e
=1
4a
4b
4cc
4b
=2
4a
4b/
2g#
=3
4e;}
{4gn
4g
4f
=4
4e
4a
4a
4g#
=5
2a
4r}
{4e
=6
4a
4b
4cc
4b
=7
4a
4b/
2g#
=8
4e;}
{4gn
4g
4f
=9
4e
4a
4a
4g#
=10
2a
4r}
{4b
=11
4cc
4dd
4ee
4ee
=12
4dd
4dd
4cc;}
{4ee
=13
4dd
4cc
4b
4a
=14
4cc
4b
4a;}
==
!!!Ag: geistlich, Trost -, Lob - Lied, Choral
!!!ONB: ESAC (Essen Associative Code) Database: ERK3
!!!AMT: simple quadruple
!!!AIN: vox
!!!EED: Helmut Schaffrath
!!!EEV: 1.0
!!!GTL: Geistliche Lieder. 2. Gottesglaube und Gottesverehrung in Liedern: Bitt-, Lob-, Dank- und Trostlieder, nebst einigen Lehrgesaengen. 
!!!URL-scan: https://rosdok.uni-rostock.de/mcrviewer/recordIdentifier/rosdok_ppn745177999/iview2/phys_0712.iview2?x=188.96815741118007&y=1667.9092942681164&scale=0.7014306698522891&rotation=0&layout=singlePageLayout
!!!ENC: Anna Maria Matuszewska
!!!EEV: 2025/10/01
*-
